X:1
T:Title
%%score ( 1 2 3 ) { 4 | 5 }
L:1/8
Q:1/4=105
M:4/4
K:F
V:1 treble nm="Grand Piano, Soprano"
V:2 treble 
V:3 treble 
V:4 treble nm="Choir Pad, Smyrna, 87.87 D"
V:5 bass 
V:1
 [Fc]2 [EB]2 [FA]2 [CG]2 | [CF]3 [DG] [CF]2 [CE]2 | [FB]2 [FA]2 [FG]2 [Fd]2 | c4 z4 | %4
w: By~Arranged~from~Mozart * * *||||
 [Fc]2 [EB]2 [FA]2 [CG]2 | z2 .A2 z4 | z4 z2 G2 | [FA]2 [EG]2 F4 | [Ff]2 cB [FA]2 [Fc]2 | %9
w: |||||
 [Ff]2 cB [FA]2 [Fc]2 | [Ac]2 [Bd][Ge] [Ff]2 [Ge][Af] | [Ge]2 [Fd]2 [Ec]4 | cdBc ABGA | z2 .A2 z4 | %14
w: |||||
 [CA][Fc]F-[Fd] c f2 [GB] | [FA]2 [EG]2 F4- | F4 z4 |] %17
w: |||
V:2
 x8 | x8 | x8 | F2 z B [GB]2 [FA]2 | x8 | [CF]2 D-[DG] [CF]2 [CE]2 | F2 [CG]2 [CA]2 cB | x8 | %8
 z2 G2 z4 | z2 G2 z4 | x8 | x8 | x8 | F2 D-[DG] [CF]2 [CE]2 | z2 .B2 F4 | x8 | x8 |] %17
V:3
 x8 | x8 | x8 | z2 E2 z4 | x8 | x8 | x8 | x8 | x8 | x8 | x8 | x8 | x8 | x8 | x8 | x8 | x8 |] %17
V:4
 C2 C2 C2 C>B, | A,3 B, A,2 G,2 | B,2 C2 D2 B,2 | A,2 G,[K:treble]C C4 | C2 C2 C2 C>[K:bass]B, | %5
 A,2 B,2 A,2 G,2 | A,=B,[K:treble] C2 C2 D2 | C2 B,2[K:bass] A,4 | A,2 C2 C2 A,2 | %9
 A,2[K:treble] C2 C2 A,2 | F2 FC C2 C2 | C2[K:bass] =B,2 C4 | A,B,G,A,[K:treble] CDB,C | %13
 A,2[K:bass] B,2 A,2 G,2 | F,A, B,2[K:treble] C3 D | C2 B,2 A,4- | A,4 z4 |] %17
V:5
 A,2 G,2 F,2 E,2 | F,3 B,, C,2 C,2 | D,2 C,2 B,,2 B,,2 | C,2 C,2 F,4 | A,2 G,2 F,2 E,2 | %5
 F,2 B,,2 C,2 C,2 | D,2 E,2 F,2 B,,2 | C,2 C,2 F,4 | F,2 E,2 F,2 F,2 | F,2 E,2 F,2 F,2 | %10
 F,2 B,2 A,2 G,F, | G,2 G,,2 C,4 | z8 | F,2 B,,2 C,2 C,2 | z2 D,B,, A,,3 B,, | C,2 C,2 F,4- | %16
 F,4 z4 |] %17

